Numix-GalliumOS/24/devices/ac-adapter.svg

<?xml version="1.0" encoding="UTF-8" standalone="no"?>
<svg
   xmlns:dc="http://purl.org/dc/elements/1.1/"
   xmlns:cc="http://creativecommons.org/ns#"
   xmlns:rdf="http://www.w3.org/1999/02/22-rdf-syntax-ns#"
   xmlns:svg="http://www.w3.org/2000/svg"
   xmlns="http://www.w3.org/2000/svg"
   xmlns:sodipodi="http://sodipodi.sourceforge.net/DTD/sodipodi-0.dtd"
   xmlns:inkscape="http://www.inkscape.org/namespaces/inkscape"
   width="24"
   height="24"
   viewBox="0 0 24 24"
   id="svg2"
   version="1.1"
   inkscape:version="0.91 r"
   sodipodi:docname="ac-adapter.svg">
  <metadata
     id="metadata10">
    <rdf:RDF>
      <cc:Work
         rdf:about="">
        <dc:format>image/svg+xml</dc:format>
        <dc:type
           rdf:resource="http://purl.org/dc/dcmitype/StillImage" />
        <dc:title></dc:title>
      </cc:Work>
    </rdf:RDF>
  </metadata>
  <defs
     id="defs8" />
  <sodipodi:namedview
     pagecolor="#ffffff"
     bordercolor="#666666"
     borderopacity="1"
     objecttolerance="10"
     gridtolerance="10"
     guidetolerance="10"
     inkscape:pageopacity="0"
     inkscape:pageshadow="2"
     inkscape:window-width="1920"
     inkscape:window-height="1056"
     id="namedview6"
     showgrid="true"
     inkscape:zoom="29.5"
     inkscape:cx="4.1884999"
     inkscape:cy="11.348231"
     inkscape:window-x="0"
     inkscape:window-y="24"
     inkscape:window-maximized="1"
     inkscape:current-layer="svg2"
     borderlayer="true">
    <inkscape:grid
       type="xygrid"
       id="grid3010" />
  </sodipodi:namedview>
  <path
     id="path4164"
     style="fill:#909ea9;fill-opacity:1"
     d="m 10.999581,19.000071 0,2.52607 C 10.999581,21.789879 10.790835,22 10.528825,22 L 9.4705808,22 C 9.2085715,22 8.9697178,21.788155 8.9998254,21.526141 l 0,-2.52607 z m 4.000999,0 0,2.52607 C 15.00058,21.789879 14.791834,22 14.529825,22 l -1.058245,0 c -0.262009,0 -0.47175,-0.210122 -0.470754,-0.473859 l 0,-2.52607 z"
     inkscape:connector-curvature="0"
     sodipodi:nodetypes="csssscccsssscc" />
  <path
     id="path4164-3"
     style="fill:#20262b;fill-opacity:1"
     d="m 2.6081157,2.5627293 c 0.1523035,0.0055 0.2948086,0.050354 0.4119121,0.111883 0.1561327,0.082037 0.2669972,0.1981504 0.3138366,0.3488128 0.2071361,0.666264 0.6213374,1.2816902 1.16381,1.7045757 0.7875728,0.6570276 1.9595467,0.8916929 3.1775962,1.2109735 0.613795,0.148799 1.2536103,0.3207478 1.8960971,0.5791611 0.6451823,0.2565762 1.2769153,0.6243561 1.8241773,1.1451587 0.608616,0.5897365 1.049069,1.3472379 1.255345,2.1718549 0.06749,0.271497 0.107357,0.887214 0.124228,1.164962 l 2.022387,0 c 1.220898,0 2.203396,0.988974 2.203396,2.21792 l 0,4.78204 -10.0003957,0 0,-4.78204 c 0,-1.228946 0.9824989,-2.21792 2.2033956,-2.21792 l 2.0216481,0 c -0.01392,-0.15054 -0.02894,-0.644371 -0.06539,-0.789824 C 11.026609,9.672119 10.734075,9.166073 10.336341,8.7821282 9.9830852,8.4316463 9.5089936,8.1671216 8.9959972,7.9528743 8.4802738,7.7404516 7.9088544,7.5952483 7.3091256,7.4461099 6.1002846,7.1695517 4.7395008,6.8334751 3.5561614,5.9455555 2.7572376,5.3169575 2.1681679,4.4511958 1.8692883,3.4841217 1.8017031,3.2654372 1.8372247,3.0382327 1.9477479,2.8720539 2.0582724,2.7058749 2.2402938,2.6041591 2.4511945,2.575892 2.5039235,2.568822 2.557344,2.560896 2.6081157,2.562729 Z"
     inkscape:connector-curvature="0"
     sodipodi:nodetypes="cssccccccssccssccccccsscc" />
</svg>

<svg xmlns="http://www.w3.org/2000/svg" viewBox="0 0 24 24">
 <path d="m 11 19 0 2.526 c 0 0.264 -0.209 0.474 -0.471 0.474 l -1.058 0 c -0.262 0 -0.501 -0.212 -0.471 -0.474 l 0 -2.526 z m 4 0 0 2.526 c 0 0.264 -0.209 0.474 -0.471 0.474 l -1.058 0 c -0.262 0 -0.472 -0.21 -0.471 -0.474 l 0 -2.526 z" style="fill:#909ea9;fill-opacity:1"/>
 <path d="m 2.608 2.563 c 0.152 0.006 0.295 0.05 0.412 0.112 0.156 0.082 0.267 0.198 0.314 0.349 0.207 0.666 0.621 1.282 1.164 1.705 0.788 0.657 1.96 0.892 3.178 1.211 0.614 0.149 1.254 0.321 1.896 0.579 0.645 0.257 1.277 0.624 1.824 1.145 0.609 0.59 1.049 1.347 1.255 2.172 0.067 0.271 0.107 0.887 0.124 1.165 l 2.022 0 c 1.221 0 2.203 0.989 2.203 2.218 l 0 4.782 -10 0 0 -4.782 c 0 -1.229 0.982 -2.218 2.203 -2.218 l 2.02 0 c -0.014 -0.151 -0.029 -0.644 -0.065 -0.79 c -0.134 -0.538 -0.426 -1.044 -0.824 -1.428 -0.353 -0.35 -0.827 -0.615 -1.34 -0.829 -0.516 -0.212 -1.087 -0.358 -1.687 -0.507 -1.209 -0.277 -2.57 -0.613 -3.753 -1.501 -0.799 -0.629 -1.388 -1.494 -1.687 -2.461 -0.068 -0.219 -0.032 -0.446 0.078 -0.612 0.111 -0.166 0.293 -0.268 0.503 -0.296 0.053 -0.007 0.106 -0.015 0.157 -0.013" style="fill:#20262b;fill-opacity:1"/>
</svg>
